!!!OTL: Wilhelmus van Nassouwen
!!!ARE: Europa, Mitteleuropa, Deutschland
!!!SCT: A0411
!!!YEM: Copyright 1995, estate of Helmut Schaffrath.
**kern
*ICvox
*Ivox
*M4/4
*k[f#]
*G:
{4d
=1
4.g
8a
2g
=2
2a
2dd
=3
2b
4a}
{4dd
=4
2cc
2b
=5
4.a
8g
4.a
8b
=6
2g
4r}
{4d
=7
4.g
8a
2g
=8
2a
2dd
=9
2b
4a}
{4dd
=10
2cc
2b
=11
4.a
8g
4.a
8b
=12
2g
4r}
{8b
8d
=13
4g
4a
4b
4cc
=14
4.dd
8ee
4dd
4cc
=15
2b
2a}
=16
{4g
4a
4b
4cc
=17
2dd
8ee
8dd
8cc
8b
=18
2.a}
{4d
=19
4.g
8a
2g
=20
2a
2dd
=21
2b
4a}
{4dd
=22
2cc
2b
=23
4.a
8g
4.a
8b
=24
2g
4r}
==
!!!AGN: Romanze, Ballade, Lied, Kriegslied
!! (=A0409D)Willems, Oude vlaemische liederen. No.33.
!!!ONB: ESAC (Essen Associative Code) Database: ALTDEU
!!!AMT: simple quadruple
!!!AIN: vox
!!!EED: Helmut Schaffrath
!!!EEV: 1.0
*-
